X: 9404
T: Daniel Cowper's
R: polka
M: 2/4
K: Dmajor
A|Ad dB|Be eA|Ad dB|f3 A|
Ad dB|Be eA|Ad dB|f4|
|:f>g af|gf ed|f>g af|g2 e2|
f>g af|gf ed|Ad dB|1 f4:|2 f3||

